X:10590
T:McCahill's Reel
T:Guitar Player's Despair, The
R:reel
Z:I made up the second title, because of the weird key changes in this tune.
Z:id:hn-reel-98
M:C|
K:D
d2cd BdAF|EFGA BE~E2|Ad~d2 fdAF|GBAG FDDA:|
|:B2^GB ADFA|B2^GB BcdA|B2^GB ADFA|GEFD EDB,D:|
|:e2^ge be^ge|Be^ge f^gaf|e2^ge be^ge|a2^ga faec:|
